!!!OTL: Wilhelm. / Gegenstueck.
!!!OTL-incipit: ICH WAR WOHL RECHT EIN SPRINGINSFELD
!!!COM: J. Ab. P. Schulz
!!!ARE: Europa, Mitteleuropa, Deutschland
!!!SCT: F0951
!!!TXL: @@DE
!!!YEM: Copyright 1995, estate of Helmut Schaffrath.
**kern	**text
*ICvox	*
*clefG2	*
*M6/8	*
*k[b-e-a-]	*
*E-:	*
!LO:TX:a:t=Allegretto.	!
{8ee-	1._Jch
=1	=1
4dd/	war
8cc/	wohl
8b-/L	recht
8ccJ	.
8dd/	ein
=2	=2
8ee-/L	Springin's
8ddJ	.
8cc/	.
4b-/}	feld
{8b-/	in
=3	=3
8b-/L	mei-
8a-J	.
8f	-nen
8a-L	Jünglings-
8gJ	.
8e-	.
=4	=4
(4b-/	-ta-
8g)	.
4f}	-gen,
{8e-	und
=5	=5
8ee-/L	that
8ddJ	.
8cc/	nichts
8b-/L	lie-
8ccJ	.
8dd/	-ber
=6	=6
8ee-/L	auf
8ddJ	.
8cc/	der
4b-/}	Welt,
{8b-/	als
=7	=7
8ccL	rei-
8ffJ	.
8ee-	-ten,
8ddL	fi-
8ccJ	.
8b-	-ſchen,
=8	=8
4.ee-	ja-
8b-/	-gen.
8r}	.
==	==
!!!AGN: Liebes - Lied
!!!ONB: ESAC (Essen Associative Code) Database: FINK
!!!AMT: compound duple
!!!AIN: vox
!!!EED: Helmut Schaffrath
!!!EEV: 1.0
!!Text: Buerger
!!!RDF**kern: > = above
!!!GTL: Minnelieder
!!!source: Musikalischer Hausschatz der Deutschen. Eine Sammlung von über 1000 Liedern und Gesängen mit Singstimmen und Klavierbegleitung. Leipzig, Litterarisches Verlags-Haus.
!!!page: 708
!!!URL-scan: https://www.digitale-sammlungen.de/en/view/bsb11144622?page=618
!!!ENC: Anna Maria Matuszewska
!!!EEV: 2024/08/08
*-	*-